images/footer-page/linkedin.svg

<svg width="24" height="24" viewBox="0 0 24 24" fill="none" xmlns="http://www.w3.org/2000/svg">
<path d="M3.46687 1.21875C1.817 1.21875 0.738281 2.30214 0.738281 3.7261C0.738281 5.11862 1.78487 6.23291 3.40356 6.23291H3.43488C5.11702 6.23291 6.16388 5.11862 6.16388 3.7261C6.13243 2.30214 5.11702 1.21875 3.46687 1.21875Z" fill="white"/>
<path d="M1.02344 8.21411H5.84671V22.7251H1.02344V8.21411Z" fill="white"/>
<path d="M17.6855 7.87354C15.0836 7.87354 13.3388 10.3185 13.3388 10.3185V8.21411H8.51538V22.7251H13.3385V14.6216C13.3385 14.1878 13.37 13.7547 13.4974 13.4444C13.8461 12.5782 14.6396 11.6807 15.9721 11.6807C17.7174 11.6807 18.4154 13.0114 18.4154 14.9622V22.7251H23.2383V14.4048C23.2383 9.94762 20.8587 7.87354 17.6855 7.87354Z" fill="white"/>
</svg>

<svg xmlns="http://www.w3.org/2000/svg" width="24" height="24" fill="none"><path fill="#fff" d="M3.467 1.219c-1.65 0-2.729 1.083-2.729 2.507 0 1.393 1.047 2.507 2.666 2.507h.03c1.683 0 2.73-1.114 2.73-2.507C6.132 2.302 5.117 1.22 3.467 1.22ZM1.023 8.214h4.824v14.511H1.023V8.215ZM17.686 7.874c-2.602 0-4.347 2.445-4.347 2.445V8.213H8.515v14.511h4.823v-8.103c0-.434.032-.867.16-1.178.348-.866 1.142-1.763 2.474-1.763 1.745 0 2.443 1.33 2.443 3.281v7.763h4.823v-8.32c0-4.457-2.38-6.531-5.552-6.531Z"/></svg>
